icons/clickdeploy.svg

<?xml version="1.0" encoding="UTF-8" standalone="no"?>
<svg width="256px" height="192px" viewBox="0 0 256 192" version="1.1" xmlns="http://www.w3.org/2000/svg" xmlns:xlink="http://www.w3.org/1999/xlink" preserveAspectRatio="xMidYMid">
    <g>
        <path d="M134.028357,126.958919 L156.821834,136.634176 L157.090122,44.225661 L90.8033688,108.611 L113.397587,118.201677 L103.06782,142.537082 L123.69859,151.294324 L134.028357,126.958919 L134.028357,126.958919 Z M58.2723735,191.252918 C26.0894303,191.252918 0,165.163488 0,132.980545 C0,107.935312 15.8002238,86.5804182 37.9765841,78.3399521 C39.9532644,47.9466201 65.2314671,23.9066148 96.1245136,23.9066148 C100.69993,23.9066148 105.152184,24.4339349 109.423818,25.4311165 L109.423824,25.4311077 C121.256179,9.97105482 139.899455,0 160.871595,0 C196.630421,0 225.618677,28.9882559 225.618677,64.7470817 C225.618677,66.7470792 225.527996,68.725897 225.350523,70.6796481 C243.759084,82.2144936 256,102.681628 256,126.007782 C256,162.041676 226.788757,191.252918 190.754864,191.252918 L190.754864,191.750973 L58.2723735,191.750973 L58.2723735,191.252918 L58.2723735,191.252918 Z" fill="#000000"></path>
    </g>
</svg>

<svg xmlns="http://www.w3.org/2000/svg" viewBox="0 0 256 191.751">
  <path d="m134.028 126.959 22.794 9.675.268-92.408-66.287 64.385 22.595 9.59-10.33 24.336 20.63 8.757zm-75.756 64.294C26.09 191.253 0 165.163 0 132.98c0-25.046 15.8-46.4 37.977-54.641 1.976-30.393 27.254-54.433 58.148-54.433 4.575 0 9.027.527 13.299 1.524C121.256 9.971 139.899 0 160.872 0c35.758 0 64.747 28.988 64.747 64.747 0 2-.091 3.979-.268 5.933C243.759 82.214 256 102.682 256 126.008c0 36.034-29.211 65.245-65.245 65.245v.498H58.272z"/>
</svg>
